icons/svg/tourist/theme_park.svg

<?xml version="1.0" encoding="UTF-8" standalone="no"?>
<!-- Created with Inkscape (http://www.inkscape.org/) -->

<svg
   xmlns:dc="http://purl.org/dc/elements/1.1/"
   xmlns:cc="http://creativecommons.org/ns#"
   xmlns:rdf="http://www.w3.org/1999/02/22-rdf-syntax-ns#"
   xmlns:svg="http://www.w3.org/2000/svg"
   xmlns="http://www.w3.org/2000/svg"
   xmlns:sodipodi="http://sodipodi.sourceforge.net/DTD/sodipodi-0.dtd"
   xmlns:inkscape="http://www.inkscape.org/namespaces/inkscape"
   version="1.0"
   width="580"
   height="580"
   id="svg2"
   sodipodi:version="0.32"
   inkscape:version="0.47 r22583"
   sodipodi:docname="tourist_theme_park.svg"
   inkscape:output_extension="org.inkscape.output.svg.inkscape">
  <metadata
     id="metadata2975">
    <rdf:RDF>
      <cc:Work
         rdf:about="">
        <dc:format>image/svg+xml</dc:format>
        <dc:type
           rdf:resource="http://purl.org/dc/dcmitype/StillImage" />
        <cc:license
           rdf:resource="http://web.resource.org/cc/PublicDomain" />
        <dc:language>en</dc:language>
        <dc:title></dc:title>
      </cc:Work>
    </rdf:RDF>
  </metadata>
  <sodipodi:namedview
     inkscape:window-height="973"
     inkscape:window-width="1280"
     inkscape:pageshadow="2"
     inkscape:pageopacity="0.0"
     guidetolerance="10.0"
     gridtolerance="10.0"
     objecttolerance="10.0"
     borderopacity="1.0"
     bordercolor="#666666"
     pagecolor="#ffffff"
     id="base"
     inkscape:zoom="0.92167712"
     inkscape:cx="335.51279"
     inkscape:cy="170.22366"
     inkscape:window-x="0"
     inkscape:window-y="0"
     inkscape:current-layer="svg2"
     showgrid="false"
     inkscape:window-maximized="1" />
  <defs
     id="defs4">
    <inkscape:perspective
       sodipodi:type="inkscape:persp3d"
       inkscape:vp_x="0 : 290 : 1"
       inkscape:vp_y="0 : 1000 : 0"
       inkscape:vp_z="580 : 290 : 1"
       inkscape:persp3d-origin="290 : 193.33333 : 1"
       id="perspective2441" />
    <inkscape:perspective
       id="perspective3452"
       inkscape:persp3d-origin="30 : 20 : 1"
       inkscape:vp_z="60 : 30 : 1"
       inkscape:vp_y="0 : 1000 : 0"
       inkscape:vp_x="0 : 30 : 1"
       sodipodi:type="inkscape:persp3d" />
    <symbol
       viewBox="244.5 110 489 219.9"
       id="symbol-university">
      <path
         id="path4460"
         d="M79,43l57,119c0,0,21-96,104-96s124,106,124,106l43-133l82-17L0,17L79,43z" />
      <path
         id="path4462"
         d="M94,176l-21,39"
         stroke-width="20"
         stroke="#000000"
         fill="none" />
      <path
         id="path4464"
         d="M300,19c0,10.5-22.6,19-50.5,19S199,29.5,199,19s22.6-19,50.5-19S300,8.5,300,19z" />
      <path
         id="path4466"
         d="M112,216l-16-38L64,88c0,0-9-8-4-35s16-24,16-24"
         stroke-width="20"
         stroke="#000000"
         ill="none" />
    </symbol>
    <inkscape:perspective
       id="perspective4471"
       inkscape:persp3d-origin="372.04724 : 350.78739 : 1"
       inkscape:vp_z="744.09448 : 526.18109 : 1"
       inkscape:vp_y="0 : 1000 : 0"
       inkscape:vp_x="0 : 526.18109 : 1"
       sodipodi:type="inkscape:persp3d" />
    <inkscape:perspective
       id="perspective4668"
       inkscape:persp3d-origin="6 : 4 : 1"
       inkscape:vp_z="12 : 6 : 1"
       inkscape:vp_y="0 : 1000 : 0"
       inkscape:vp_x="0 : 6 : 1"
       sodipodi:type="inkscape:persp3d" />
    <inkscape:perspective
       id="perspective2893"
       inkscape:persp3d-origin="0.5 : 0.33333333 : 1"
       inkscape:vp_z="1 : 0.5 : 1"
       inkscape:vp_y="0 : 1000 : 0"
       inkscape:vp_x="0 : 0.5 : 1"
       sodipodi:type="inkscape:persp3d" />
  </defs>
  <g
     id="g1327">
    <path
       d="M 66.275,1.768 C 24.94,1.768 1.704,23.139 1.704,66.804 L 1.704,516.927 C 1.704,557.771 22.599,579.156 63.896,579.156 L 515.92,579.156 C 557.227,579.156 578.149,558.841 578.149,516.927 L 578.149,66.804 C 578.149,24.203 557.227,1.768 514.628,1.768 C 514.624,1.768 66.133,1.625 66.275,1.768 z"
       style="fill:#111111;stroke:#eeeeee;stroke-width:3.40799999"
       id="path1329" />
  </g>
  <path
     style="fill:none;stroke:#ffffff;stroke-width:17.79999923999999822;stroke-linecap:round;stroke-linejoin:round;stroke-miterlimit:4;stroke-opacity:1;stroke-dasharray:none"
     d="M 56.418889,106.26948 C 109.59021,92.346572 181.62685,127.4125 284.2644,253.82658 386.90196,380.24065 454.94502,396.93032 520.78975,399.21371"
     id="path2899"
     sodipodi:nodetypes="czc" />
  <path
     style="font-size:medium;font-style:normal;font-variant:normal;font-weight:normal;font-stretch:normal;text-indent:0;text-align:start;text-decoration:none;line-height:normal;letter-spacing:normal;word-spacing:normal;text-transform:none;direction:ltr;block-progression:tb;writing-mode:lr-tb;text-anchor:start;opacity:0.50000000000000000;color:#000000;fill:#ffffff;fill-opacity:1;stroke:none;stroke-width:20;marker:none;visibility:visible;display:inline;overflow:visible;enable-background:accumulate;font-family:Bitstream Charter;-inkscape-font-specification:Bitstream Charter"
     d="m 76.794789,102.76534 0,10 0,66.96875 -11.6875,0 -10,0 0,20 10,0 11.6875,0 0,48 -11.6875,0 -10,0 0,20 10,0 11.6875,0 0,48 -11.6875,0 -10,0 0,20 10,0 11.6875,0 0,48 -11.6875,0 -10,0 0,20 10,0 11.6875,0 0,48 -11.6875,0 -10,0 0,20 10,0 11.6875,0 0,12.78125 0,10 20,0 0,-10 0,-12.78125 48.000001,0 0,12.78125 0,10 20,0 0,-10 0,-12.78125 46,0 0,12.78125 0,10 20,0 0,-10 0,-12.78125 48,0 0,12.78125 0,10 20,0 0,-10 0,-12.78125 48,0 0,12.78125 0,10 20,0 0,-10 0,-12.78125 48,0 0,12.78125 0,10 20,0 0,-10 0,-12.78125 48,0 0,12.78125 0,10 20,0 0,-10 0,-77.75 0,-10 -20,0 0,0.15625 -26.375,-13.1875 -10,0 -11.625,0 0,-4.96875 -20,0 0,4.96875 -48,0 0,-38.96875 0,-10 -6.375,0 0,-19.03125 -30,0 -31.625,0 0,-42.96875 0,-10 -18.375,0 0,-15.03125 -10,0 -39.625,0 0,-48.96875 0,-10 -8.375,0 0,-9.03125 -10,0 -47.625,0 0,-40.96875 0,-10 -20,0 0,10 0,40.96875 -48.000001,0 0,-66.96875 0,-10 -20,0 z m 20,96.96875 48.000001,0 0,48 -48.000001,0 0,-48 z m 68.000001,0 46,0 0,48 -46,0 0,-48 z m -68.000001,68 48.000001,0 0,48 -48.000001,0 0,-48 z m 68.000001,0 46,0 0,48 -46,0 0,-48 z m 66,0 39.625,0 8.375,0 0,5.03125 0,42.96875 -48,0 0,-48 z m -134.000001,68 48.000001,0 0,48 -48.000001,0 0,-48 z m 68.000001,0 46,0 0,48 -46,0 0,-48 z m 66,0 48,0 0,48 -48,0 0,-48 z m 68,0 31.625,0 16.375,0 0,9.03125 0,38.96875 -48,0 0,-48 z m -202.000001,68 48.000001,0 0,48 -48.000001,0 0,-48 z m 68.000001,0 46,0 0,48 -46,0 0,-48 z m 66,0 48,0 0,48 -48,0 0,-48 z m 68,0 48,0 0,48 -48,0 0,-48 z m 68,0 48,0 0,48 -48,0 0,-48 z m 68,0 11.625,0 36.375,0 0,3.03125 0,44.96875 -48,0 0,-48 z"
     id="path2901" />
  <path
     style="fill:#ffffff;fill-opacity:1;stroke:#ffffff;stroke-width:20;stroke-linecap:round;stroke-linejoin:round;stroke-miterlimit:4;stroke-opacity:1;stroke-dasharray:none"
     d="m 202.93533,160.29659 c 21.65625,21.35417 43.3125,42.70833 64.96875,64.0625 12.71777,-4.25342 25.62939,-7.82838 32.71875,-31.78125 -20.76042,-21.41667 -41.52083,-42.83333 -62.28125,-64.25 -23.6686,0.76748 -28.44038,17.28233 -35.40625,31.96875 z"
     id="path3709"
     sodipodi:nodetypes="ccccc" />
  <path
     sodipodi:type="arc"
     style="fill:#ffffff;fill-opacity:1;stroke:none"
     id="path3719"
     sodipodi:cx="-419.88675"
     sodipodi:cy="113.45918"
     sodipodi:rx="5.4248934"
     sodipodi:ry="5.4248934"
     d="m -414.46186,113.45918 a 5.4248934,5.4248934 0 1 1 -10.84978,0 5.4248934,5.4248934 0 1 1 10.84978,0 z"
     transform="matrix(2.6,0,0,2.6,1380.3098,-189.46945)" />
  <path
     transform="matrix(2.6,0,0,2.6,1405.2643,-148.07031)"
     d="m -414.46186,113.45918 a 5.4248934,5.4248934 0 1 1 -10.84978,0 5.4248934,5.4248934 0 1 1 10.84978,0 z"
     sodipodi:ry="5.4248934"
     sodipodi:rx="5.4248934"
     sodipodi:cy="113.45918"
     sodipodi:cx="-419.88675"
     id="path3721"
     style="fill:#ffffff;fill-opacity:1;stroke:none"
     sodipodi:type="arc" />
  <path
     style="fill:#ffffff;stroke:#ffffff;stroke-width:40.50000000000000000;stroke-linecap:round;stroke-linejoin:miter;stroke-miterlimit:4;stroke-opacity:1;stroke-dasharray:none;fill-opacity:1"
     d="m 263.64982,130.81883 -29.29443,29.29442"
     id="path3723" />
  <path
     id="path3725"
     d="m 291.68931,166.79309 -29.29443,29.29442"
     style="fill:#ffffff;stroke:#ffffff;stroke-width:28.50000000000000000;stroke-linecap:round;stroke-linejoin:miter;stroke-miterlimit:4;stroke-opacity:1;stroke-dasharray:none;fill-opacity:1" />
  <path
     sodipodi:nodetypes="ccccc"
     id="path3736"
     d="m 325.35916,279.99237 c 22.97399,19.92961 45.94799,39.85921 68.92198,59.78882 12.42063,-5.05582 25.07798,-9.44692 30.62535,-33.80315 -22.08397,-20.04911 -44.16794,-40.09821 -66.25191,-60.14732 -23.57148,2.27535 -27.28034,19.06089 -33.29542,34.16165 z"
     style="fill:#ffffff;fill-opacity:1;stroke:#ffffff;stroke-width:20;stroke-linecap:round;stroke-linejoin:round;stroke-miterlimit:4;stroke-opacity:1;stroke-dasharray:none" />
  <path
     transform="matrix(2.5947074,-0.16581089,0.16581089,2.5947074,1474.8464,-140.71231)"
     d="m -414.46186,113.45918 a 5.4248934,5.4248934 0 1 1 -10.84978,0 5.4248934,5.4248934 0 1 1 10.84978,0 z"
     sodipodi:ry="5.4248934"
     sodipodi:rx="5.4248934"
     sodipodi:cy="113.45918"
     sodipodi:cx="-419.88675"
     id="path3738"
     style="fill:#ffffff;fill-opacity:1;stroke:none;stroke-opacity:1"
     sodipodi:type="arc" />
  <path
     sodipodi:type="arc"
     style="fill:#ffffff;fill-opacity:1;stroke:none"
     id="path3740"
     sodipodi:cx="-419.88675"
     sodipodi:cy="113.45918"
     sodipodi:rx="5.4248934"
     sodipodi:ry="5.4248934"
     d="m -414.46186,113.45918 a 5.4248934,5.4248934 0 1 1 -10.84978,0 5.4248934,5.4248934 0 1 1 10.84978,0 z"
     transform="matrix(2.5947074,-0.16581089,0.16581089,2.5947074,1502.3944,-100.86133)" />
  <path
     id="path3742"
     d="m 381.01699,250.26069 -27.3666,31.103"
     style="fill:#ffffff;fill-opacity:1;stroke:#ffffff;stroke-width:40.5;stroke-linecap:round;stroke-linejoin:miter;stroke-miterlimit:4;stroke-opacity:1;stroke-dasharray:none" />
  <path
     style="fill:#ffffff;fill-opacity:1;stroke:#ffffff;stroke-width:28.5;stroke-linecap:round;stroke-linejoin:miter;stroke-miterlimit:4;stroke-opacity:1;stroke-dasharray:none"
     d="m 411.2936,284.37355 -27.36659,31.10299"
     id="path3744" />
</svg>

<svg width="580" height="580" viewBox="0 0 580 580" fill="none" xmlns="http://www.w3.org/2000/svg">
<g clip-path="url(#clip0)">
<path d="M66.2751 1.76766C24.9401 1.76766 1.7041 23.1387 1.7041 66.8037V516.927C1.7041 557.771 22.5991 579.156 63.8961 579.156H515.92C557.227 579.156 578.149 558.841 578.149 516.927V66.8037C578.149 24.2027 557.227 1.76766 514.628 1.76766C514.624 1.76766 66.1331 1.62466 66.2751 1.76766Z" fill="#111111" stroke="#EEEEEE" stroke-width="3.408"/>
<path d="M56.4189 106.269C109.59 92.3464 181.627 127.412 284.264 253.826C386.902 380.24 454.945 396.93 520.79 399.214" stroke="white" stroke-width="17.8" stroke-linecap="round" stroke-linejoin="round"/>
<path opacity="0.5" d="M76.7949 102.766V112.766V179.734H65.1074H55.1074V199.734H65.1074H76.7949V247.734H65.1074H55.1074V267.734H65.1074H76.7949V315.734H65.1074H55.1074V335.734H65.1074H76.7949V383.734H65.1074H55.1074V403.734H65.1074H76.7949V451.734H65.1074H55.1074V471.734H65.1074H76.7949V484.516V494.516H96.7949V484.516V471.734H144.795V484.516V494.516H164.795V484.516V471.734H210.795V484.516V494.516H230.795V484.516V471.734H278.795V484.516V494.516H298.795V484.516V471.734H346.795V484.516V494.516H366.795V484.516V471.734H414.795V484.516V494.516H434.795V484.516V471.734H482.795V484.516V494.516H502.795V484.516V406.766V396.766H482.795V396.922L456.42 383.734H446.42H434.795V378.766H414.795V383.734H366.795V344.766V334.766H360.42V315.734H330.42H298.795V272.766V262.766H280.42V247.734H270.42H230.795V198.766V188.766H222.42V179.734H212.42H164.795V138.766V128.766H144.795V138.766V179.734H96.7949V112.766V102.766H76.7949V102.766ZM96.7949 199.734H144.795V247.734H96.7949V199.734V199.734ZM164.795 199.734H210.795V247.734H164.795V199.734ZM96.7949 267.734H144.795V315.734H96.7949V267.734ZM164.795 267.734H210.795V315.734H164.795V267.734ZM230.795 267.734H270.42H278.795V272.766V315.734H230.795V267.734ZM96.7949 335.734H144.795V383.734H96.7949V335.734ZM164.795 335.734H210.795V383.734H164.795V335.734ZM230.795 335.734H278.795V383.734H230.795V335.734ZM298.795 335.734H330.42H346.795V344.766V383.734H298.795V335.734ZM96.7949 403.734H144.795V451.734H96.7949V403.734ZM164.795 403.734H210.795V451.734H164.795V403.734ZM230.795 403.734H278.795V451.734H230.795V403.734ZM298.795 403.734H346.795V451.734H298.795V403.734ZM366.795 403.734H414.795V451.734H366.795V403.734ZM434.795 403.734H446.42H482.795V406.766V451.734H434.795V403.734Z" fill="white"/>
<path d="M202.936 160.297C224.592 181.651 246.248 203.005 267.904 224.359C280.622 220.106 293.534 216.531 300.623 192.578C279.863 171.161 259.102 149.745 238.342 128.328C214.673 129.096 209.901 145.61 202.936 160.297V160.297Z" fill="white" stroke="white" stroke-width="20" stroke-linecap="round" stroke-linejoin="round"/>
<path d="M302.709 105.525C302.712 107.378 302.348 109.214 301.64 110.927C300.932 112.64 299.894 114.197 298.584 115.509C297.274 116.82 295.718 117.86 294.006 118.57C292.294 119.28 290.458 119.645 288.605 119.645C286.751 119.645 284.916 119.28 283.203 118.57C281.491 117.86 279.936 116.82 278.626 115.509C277.316 114.197 276.277 112.64 275.569 110.927C274.861 109.214 274.498 107.378 274.5 105.525C274.498 103.671 274.861 101.835 275.569 100.122C276.277 98.4092 277.316 96.8525 278.626 95.5411C279.936 94.2296 281.491 93.1893 283.203 92.4795C284.916 91.7697 286.751 91.4043 288.605 91.4043C290.458 91.4043 292.294 91.7697 294.006 92.4795C295.718 93.1893 297.274 94.2296 298.584 95.5411C299.894 96.8525 300.932 98.4092 301.64 100.122C302.348 101.835 302.712 103.671 302.709 105.525V105.525Z" fill="white"/>
<path d="M327.664 146.923C327.666 148.777 327.302 150.613 326.594 152.326C325.887 154.039 324.848 155.596 323.538 156.907C322.228 158.218 320.672 159.259 318.96 159.969C317.248 160.678 315.412 161.044 313.559 161.044C311.705 161.044 309.87 160.678 308.158 159.969C306.445 159.259 304.89 158.218 303.58 156.907C302.27 155.596 301.231 154.039 300.523 152.326C299.815 150.613 299.452 148.777 299.454 146.923C299.452 145.07 299.815 143.234 300.523 141.521C301.231 139.808 302.27 138.251 303.58 136.94C304.89 135.628 306.445 134.588 308.158 133.878C309.87 133.168 311.705 132.803 313.559 132.803C315.412 132.803 317.248 133.168 318.96 133.878C320.672 134.588 322.228 135.628 323.538 136.94C324.848 138.251 325.887 139.808 326.594 141.521C327.302 143.234 327.666 145.07 327.664 146.923V146.923Z" fill="white"/>
<path d="M263.65 130.818L234.355 160.113Z" fill="white"/>
<path d="M263.65 130.818L234.355 160.113" stroke="white" stroke-width="40.5" stroke-linecap="round"/>
<path d="M291.689 166.793L262.395 196.087Z" fill="white"/>
<path d="M291.689 166.793L262.395 196.087" stroke="white" stroke-width="28.5" stroke-linecap="round"/>
<path d="M325.359 279.993C348.333 299.922 371.307 319.852 394.281 339.782C406.702 334.726 419.359 330.335 424.907 305.978C402.823 285.929 380.739 265.88 358.655 245.831C335.083 248.106 331.374 264.892 325.359 279.993V279.993Z" fill="white" stroke="white" stroke-width="20" stroke-linecap="round" stroke-linejoin="round"/>
<path d="M418.252 222.403C418.372 224.253 418.127 226.108 417.529 227.863C416.932 229.618 415.995 231.237 414.771 232.63C413.548 234.022 412.062 235.159 410.398 235.977C408.734 236.795 406.926 237.276 405.076 237.394C403.226 237.513 401.371 237.265 399.617 236.666C397.863 236.067 396.245 235.128 394.854 233.902C393.463 232.677 392.327 231.19 391.511 229.525C390.695 227.861 390.216 226.052 390.1 224.202C389.979 222.352 390.225 220.497 390.822 218.742C391.419 216.988 392.357 215.368 393.58 213.976C394.804 212.583 396.29 211.446 397.954 210.628C399.617 209.811 401.425 209.329 403.275 209.211C405.125 209.093 406.98 209.34 408.734 209.939C410.488 210.539 412.107 211.478 413.498 212.703C414.889 213.928 416.025 215.415 416.84 217.08C417.656 218.744 418.136 220.553 418.252 222.403V222.403Z" fill="white"/>
<path d="M445.8 262.255C445.92 264.104 445.674 265.96 445.077 267.714C444.48 269.469 443.543 271.089 442.319 272.481C441.095 273.873 439.609 275.011 437.946 275.829C436.282 276.646 434.474 277.128 432.624 277.246C430.774 277.364 428.919 277.117 427.165 276.517C425.411 275.918 423.792 274.979 422.401 273.754C421.011 272.529 419.875 271.041 419.059 269.377C418.243 267.713 417.764 265.904 417.648 264.054C417.527 262.204 417.773 260.349 418.37 258.594C418.967 256.839 419.904 255.219 421.128 253.827C422.352 252.435 423.838 251.297 425.501 250.48C427.165 249.662 428.973 249.181 430.823 249.062C432.673 248.944 434.528 249.192 436.282 249.791C438.036 250.39 439.655 251.329 441.046 252.554C442.437 253.78 443.572 255.267 444.388 256.931C445.204 258.596 445.683 260.405 445.8 262.255V262.255Z" fill="white"/>
<path d="M381.017 250.261L353.65 281.364Z" fill="white"/>
<path d="M381.017 250.261L353.65 281.364" stroke="white" stroke-width="40.5" stroke-linecap="round"/>
<path d="M411.293 284.373L383.927 315.476Z" fill="white"/>
<path d="M411.293 284.373L383.927 315.476" stroke="white" stroke-width="28.5" stroke-linecap="round"/>
</g>
<defs>
<clipPath id="clip0">
<path d="M0 0H580V580H0V0Z" fill="white"/>
</clipPath>
</defs>
</svg>
